svg/color/sofid.svg

<svg xmlns="http://www.w3.org/2000/svg" width="400" height="400" fill="none" viewBox="0 0 400 400"><circle cx="200" cy="200" r="194.915" fill="#fff" stroke="#00A2C7" stroke-width="10.169"/><path fill="#00A2C7" d="M118.096 243.017c20.292 0 36.742 16.45 36.742 36.741 0 20.292-16.45 36.742-36.742 36.742s-36.74-16.45-36.741-36.742 16.45-36.741 36.741-36.741m80.832 0c20.292 0 36.741 16.45 36.741 36.741 0 20.292-16.449 36.741-36.741 36.742s-36.741-16.45-36.741-36.742 16.449-36.741 36.741-36.741m80.831 0c20.292 0 36.741 16.45 36.741 36.741 0 20.292-16.449 36.741-36.741 36.742s-36.742-16.45-36.742-36.742 16.451-36.741 36.742-36.741m-161.663 9.185c-15.218 0-27.555 12.337-27.556 27.555 0 15.219 12.338 27.557 27.556 27.557s27.557-12.338 27.557-27.557-12.338-27.555-27.557-27.555m80.832-90.016c20.292 0 36.742 16.45 36.742 36.741 0 20.292-16.45 36.742-36.742 36.742s-36.741-16.45-36.741-36.742 16.45-36.741 36.741-36.741m-80.832 0c20.292 0 36.742 16.45 36.742 36.741 0 20.292-16.45 36.741-36.742 36.741s-36.741-16.449-36.741-36.741 16.45-36.741 36.741-36.741m161.663 0c20.292 0 36.741 16.45 36.741 36.741 0 20.292-16.449 36.741-36.741 36.741s-36.742-16.449-36.742-36.741 16.451-36.741 36.742-36.741m-80.831 9.187c-15.219 0-27.555 12.336-27.555 27.555s12.336 27.557 27.555 27.557 27.557-12.338 27.557-27.557-12.338-27.555-27.557-27.555m-80.832-90.018c20.292 0 36.742 16.45 36.742 36.741 0 20.292-16.45 36.742-36.742 36.742s-36.741-16.45-36.741-36.742 16.45-36.74 36.741-36.741m80.832 0c20.292 0 36.741 16.45 36.741 36.741 0 20.292-16.449 36.742-36.741 36.742s-36.741-16.45-36.741-36.742 16.45-36.741 36.741-36.741m80.83 0c20.292 0 36.742 16.45 36.742 36.741 0 20.292-16.45 36.742-36.742 36.742s-36.741-16.45-36.741-36.742 16.45-36.74 36.741-36.741m0 9.186c-15.218 0-27.555 12.338-27.555 27.556s12.337 27.556 27.555 27.557 27.557-12.338 27.557-27.557-12.338-27.555-27.557-27.555"/></svg>

<svg width="400" height="400" viewBox="0 0 400 400" fill="none" xmlns="http://www.w3.org/2000/svg">
<circle cx="200" cy="200" r="194.915" fill="white" stroke="#00A2C7" stroke-width="10.1694"/>
<path d="M118.096 243.017C138.388 243.017 154.838 259.467 154.838 279.758C154.838 300.05 138.388 316.5 118.096 316.5C97.8046 316.5 81.3551 300.05 81.355 279.758C81.3551 259.467 97.8046 243.017 118.096 243.017ZM198.928 243.017C219.22 243.017 235.669 259.467 235.669 279.758C235.669 300.05 219.22 316.499 198.928 316.5C178.636 316.5 162.187 300.05 162.187 279.758C162.187 259.467 178.636 243.017 198.928 243.017ZM279.759 243.017C300.051 243.017 316.5 259.467 316.5 279.758C316.5 300.05 300.051 316.499 279.759 316.5C259.468 316.5 243.017 300.05 243.017 279.758C243.017 259.467 259.468 243.017 279.759 243.017ZM118.096 252.202C102.878 252.202 90.5408 264.539 90.5405 279.757C90.5407 294.976 102.878 307.314 118.096 307.314C133.315 307.314 145.653 294.976 145.653 279.757C145.653 264.539 133.315 252.202 118.096 252.202ZM198.928 162.186C219.22 162.186 235.67 178.636 235.67 198.927C235.67 219.219 219.22 235.669 198.928 235.669C178.637 235.669 162.187 219.219 162.187 198.927C162.187 178.636 178.637 162.186 198.928 162.186ZM118.096 162.186C138.388 162.186 154.838 178.636 154.838 198.927C154.838 219.219 138.388 235.668 118.096 235.668C97.8046 235.668 81.355 219.219 81.355 198.927C81.3551 178.636 97.8046 162.186 118.096 162.186ZM279.759 162.186C300.051 162.186 316.5 178.636 316.5 198.927C316.5 219.219 300.051 235.668 279.759 235.668C259.468 235.668 243.017 219.219 243.017 198.927C243.017 178.636 259.468 162.186 279.759 162.186ZM198.928 171.373C183.709 171.373 171.373 183.709 171.373 198.928C171.373 214.147 183.709 226.485 198.928 226.485C214.147 226.485 226.485 214.147 226.485 198.928C226.485 183.71 214.147 171.373 198.928 171.373ZM118.096 81.355C138.388 81.355 154.838 97.8046 154.838 118.096C154.838 138.388 138.388 154.838 118.096 154.838C97.8046 154.838 81.355 138.388 81.355 118.096C81.3551 97.8046 97.8046 81.3551 118.096 81.355ZM198.928 81.355C219.22 81.3551 235.669 97.8046 235.669 118.096C235.669 138.388 219.22 154.838 198.928 154.838C178.636 154.838 162.187 138.388 162.187 118.096C162.187 97.8046 178.637 81.355 198.928 81.355ZM279.758 81.355C300.05 81.355 316.5 97.8046 316.5 118.096C316.5 138.388 300.05 154.838 279.758 154.838C259.467 154.838 243.017 138.388 243.017 118.096C243.017 97.8048 259.467 81.3554 279.758 81.355ZM279.758 90.5415C264.54 90.5419 252.203 102.879 252.203 118.097C252.203 133.316 264.54 145.653 279.758 145.654C294.977 145.654 307.315 133.316 307.315 118.097C307.315 102.878 294.977 90.5415 279.758 90.5415Z" fill="#00A2C7"/>
</svg>
